src/components/logo/images/logoHeader.svg

<svg width="142" height="59" viewBox="0 0 142 59" fill="none" xmlns="http://www.w3.org/2000/svg">
<path d="M25.6329 25.7903H37.6775V25.7761C37.6775 19.3129 32.3033 14.0713 25.6766 14.0713C19.0499 14.0713 13.6758 19.3129 13.6758 25.7761C13.6758 32.211 19.0208 37.4384 25.6184 37.4668V25.7903H25.6329Z" fill="white"/>
<path d="M51.2074 25.7051C51.2074 19.0288 48.5422 12.7645 43.7069 8.04844C38.8716 3.33241 32.4634 0.747115 25.6328 0.73291V3.27559C38.3036 3.28979 48.6004 13.3469 48.6004 25.7051C48.6004 25.7335 48.6004 25.762 48.6004 25.7904H51.1928C51.1928 25.762 51.2074 25.7335 51.2074 25.7051Z" fill="white"/>
<path d="M25.6037 48.1346C12.9329 48.1346 2.60698 38.0775 2.60698 25.7192H0C0 32.3813 2.66524 38.6599 7.50053 43.3617C12.3358 48.0778 18.7586 50.6773 25.6037 50.6773C25.6183 50.6773 25.6329 50.6773 25.6329 50.6773V48.1346C25.6183 48.1346 25.6037 48.1346 25.6037 48.1346Z" fill="white"/>
<path d="M54.2371 25.79H51.1932C51.1641 32.4237 48.5134 38.6739 43.6927 43.3615C38.872 48.0633 32.4492 50.6628 25.6187 50.677V58.3193H54.2226V25.79H54.2371Z" fill="#00387B"/>
<path d="M41.8719 25.7902C41.8719 34.4978 34.6044 41.6003 25.6621 41.6003C16.7197 41.6003 9.45219 34.5121 9.45219 25.7902C9.45219 17.0826 16.7051 9.99438 25.6329 9.98018V7.4375C20.6229 7.4375 15.9041 9.35516 12.3505 12.807C8.79681 16.273 6.84521 20.8753 6.84521 25.7902C6.84521 30.7051 8.79681 35.3075 12.3505 38.7735C15.9041 42.2395 20.6229 44.143 25.6621 44.143C30.7013 44.143 35.42 42.2395 38.9737 38.7735C42.5273 35.3075 44.4789 30.7051 44.4789 25.8044H41.8719V25.7902Z" fill="white"/>
<path d="M56.0718 54.1005V29.9521H66.456V33.0488H60.5867V39.995H65.2035V43.0633H60.5867V51.0464H66.5143V54.1005H56.0718Z" fill="white"/>
<path d="M75.18 54.428C73.3595 54.428 71.9467 54.0871 70.9127 53.3911C69.8786 52.695 69.165 51.7433 68.7572 50.5501C68.3494 49.3427 68.1455 47.9648 68.1455 46.388V37.7657C68.1455 36.1179 68.3494 34.6832 68.7572 33.4758C69.165 32.2684 69.8786 31.3308 70.9127 30.6774C71.9467 30.024 73.3595 29.6973 75.18 29.6973C76.884 29.6973 78.2239 29.9814 79.1997 30.5496C80.1609 31.1178 80.86 31.9274 81.2678 32.9786C81.6756 34.0298 81.8795 35.2514 81.8795 36.6435V38.6748H77.5394V36.5866C77.5394 35.9048 77.5102 35.294 77.4374 34.74C77.3646 34.186 77.1753 33.7457 76.8549 33.419C76.5344 33.0922 75.9956 32.9218 75.2237 32.9218C74.4518 32.9218 73.8838 33.0922 73.5342 33.4474C73.1847 33.7883 72.9517 34.257 72.8497 34.8536C72.7478 35.436 72.7041 36.1037 72.7041 36.8423V47.3398C72.7041 48.2205 72.7769 48.9307 72.9225 49.4989C73.0682 50.0671 73.3303 50.4933 73.709 50.7773C74.0877 51.0614 74.5974 51.2035 75.2528 51.2035C76.0101 51.2035 76.5344 51.033 76.8549 50.6779C77.1753 50.337 77.3646 49.8682 77.452 49.2858C77.5394 48.7034 77.5685 48.0642 77.5685 47.354V45.1522H81.9086V47.0841C81.9086 48.5188 81.7193 49.783 81.3261 50.891C80.9328 51.999 80.2629 52.8513 79.2871 53.4905C78.2821 54.1155 76.9277 54.428 75.18 54.428Z" fill="white"/>
<path d="M90.9673 54.4276C89.2196 54.4276 87.8215 54.1151 86.7874 53.4758C85.7534 52.8366 85.0106 51.9275 84.5591 50.7343C84.1076 49.5411 83.8892 48.1348 83.8892 46.5012V37.4669C83.8892 35.8333 84.1076 34.4413 84.5591 33.2765C85.0106 32.1117 85.7534 31.231 86.7874 30.6059C87.8215 29.9951 89.2196 29.6826 90.9673 29.6826C92.7587 29.6826 94.1714 29.9951 95.2055 30.6059C96.2395 31.2167 96.9823 32.1117 97.4338 33.2765C97.8853 34.4413 98.1183 35.8333 98.1183 37.4669V46.5296C98.1183 48.1348 97.8853 49.5411 97.4338 50.7201C96.9823 51.8991 96.2249 52.8224 95.2055 53.4616C94.1714 54.1008 92.7587 54.4276 90.9673 54.4276ZM90.9673 51.1746C91.7246 51.1746 92.2781 51.0184 92.6276 50.6917C92.9772 50.3792 93.2247 49.9388 93.3413 49.3848C93.4578 48.8308 93.5306 48.22 93.5306 47.5666V36.4442C93.5306 35.7623 93.4723 35.1657 93.3413 34.6259C93.2102 34.0861 92.9772 33.6742 92.6276 33.3617C92.2781 33.0492 91.7101 32.8929 90.9673 32.8929C90.2537 32.8929 89.7148 33.0492 89.3507 33.3617C88.9866 33.6742 88.739 34.0861 88.6225 34.6259C88.506 35.1657 88.4332 35.7623 88.4332 36.4442V47.5666C88.4332 48.22 88.4914 48.8308 88.6079 49.3848C88.7244 49.9388 88.9575 50.3792 89.3216 50.6917C89.6857 51.0184 90.2391 51.1746 90.9673 51.1746Z" fill="white"/>
<path d="M100.725 54.1005V29.9521H105.255V51.0606H111.24V54.1005H100.725Z" fill="white"/>
<path d="M111.605 54.1005L116.557 29.9521H121.392L126.344 54.1005H122.164L121.188 48.5322H116.877L115.872 54.1005H111.605ZM117.314 45.7196H120.678L119.004 35.5915L117.314 45.7196Z" fill="white"/>
<path d="M127.887 54.1005V29.9521H133.815C135.49 29.9521 136.902 30.151 138.053 30.5346C139.204 30.9181 140.077 31.5857 140.675 32.5232C141.272 33.4608 141.577 34.725 141.577 36.3444C141.577 37.3245 141.49 38.191 141.301 38.9723C141.111 39.7535 140.806 40.407 140.369 40.961C139.932 41.5007 139.32 41.9269 138.548 42.2252L142 54.1147H137.47L134.47 43.0633H132.388V54.1005H127.887ZM132.402 40.2649H133.815C134.689 40.2649 135.388 40.1371 135.912 39.8956C136.436 39.6541 136.8 39.2564 137.033 38.7024C137.252 38.1626 137.368 37.4523 137.368 36.6C137.368 35.3926 137.135 34.4835 136.684 33.8727C136.232 33.2619 135.359 32.9636 134.077 32.9636H132.431V40.2649H132.402Z" fill="white"/>
</svg>

<svg width="142" height="59" fill="none" xmlns="http://www.w3.org/2000/svg"><path d="M25.633 25.79h12.045v-.014c0-6.463-5.375-11.705-12.001-11.705-6.627 0-12.001 5.242-12.001 11.705 0 6.435 5.345 11.662 11.942 11.69V25.79h.015zM51.207 25.705c0-6.676-2.665-12.94-7.5-17.657C38.872 3.332 32.463.748 25.633.733v2.543c12.67.014 22.967 10.07 22.967 22.43v.084h2.593c0-.028.014-.056.014-.085zM25.604 48.135c-12.671 0-22.997-10.057-22.997-22.416H0c0 6.662 2.665 12.94 7.5 17.643 4.836 4.716 11.259 7.315 18.104 7.315h.029v-2.542h-.03z" fill="#fff"/><path d="M54.237 25.79h-3.044c-.029 6.634-2.68 12.884-7.5 17.572-4.821 4.701-11.244 7.3-18.074 7.315v7.642h28.604V25.79h.014z" fill="#00387B"/><path d="M41.872 25.79c0 8.708-7.268 15.81-16.21 15.81s-16.21-7.088-16.21-15.81c0-8.707 7.253-15.796 16.18-15.81V7.437c-5.01 0-9.728 1.918-13.282 5.37-3.553 3.466-5.505 8.068-5.505 12.983 0 4.915 1.952 9.517 5.506 12.983 3.553 3.466 8.272 5.37 13.311 5.37 5.04 0 9.758-1.904 13.312-5.37 3.553-3.466 5.505-8.068 5.505-12.969h-2.607v-.014zM56.072 54.1V29.952h10.384v3.097h-5.87v6.946h4.618v3.068h-4.617v7.983h5.927V54.1H56.072zM75.18 54.428c-1.82 0-3.233-.34-4.267-1.037-1.034-.696-1.748-1.648-2.156-2.84-.408-1.208-.612-2.586-.612-4.163v-8.622c0-1.648.204-3.083.612-4.29.408-1.208 1.122-2.145 2.156-2.799 1.034-.653 2.447-.98 4.267-.98 1.704 0 3.044.284 4.02.853a4.756 4.756 0 012.068 2.429c.408 1.05.611 2.272.611 3.665v2.03h-4.34v-2.087c0-.682-.029-1.293-.102-1.847-.072-.554-.262-.994-.582-1.321-.32-.327-.86-.497-1.631-.497-.772 0-1.34.17-1.69.525-.35.341-.582.81-.684 1.407-.102.582-.146 1.25-.146 1.988V47.34c0 .88.073 1.59.219 2.159.145.568.407.994.786 1.278.379.284.888.426 1.544.426.757 0 1.281-.17 1.602-.525.32-.341.51-.81.597-1.392.087-.583.117-1.222.117-1.932v-2.202h4.34v1.932c0 1.435-.19 2.699-.583 3.807a5.006 5.006 0 01-2.039 2.6c-1.005.624-2.36.937-4.107.937zM90.967 54.428c-1.747 0-3.145-.313-4.18-.952-1.034-.64-1.776-1.548-2.228-2.742-.451-1.193-.67-2.6-.67-4.233v-9.034c0-1.634.219-3.026.67-4.19.452-1.165 1.194-2.046 2.228-2.671 1.034-.61 2.433-.923 4.18-.923 1.792 0 3.204.312 4.239.923 1.034.61 1.776 1.506 2.228 2.67.451 1.165.684 2.557.684 4.19v9.064c0 1.605-.233 3.011-.684 4.19-.452 1.18-1.21 2.102-2.228 2.742-1.035.639-2.447.966-4.239.966zm0-3.253c.758 0 1.311-.157 1.66-.483.35-.313.598-.753.714-1.307.117-.554.19-1.165.19-1.818V36.444c0-.682-.059-1.278-.19-1.818-.13-.54-.364-.952-.713-1.264-.35-.313-.918-.47-1.66-.47-.714 0-1.253.157-1.617.47-.364.312-.612.724-.728 1.264a8.531 8.531 0 00-.19 1.818v11.123c0 .653.058 1.264.175 1.818.116.554.35.994.714 1.307.364.326.917.483 1.645.483zM100.725 54.1V29.952h4.53v21.109h5.985v3.04h-10.515zM111.605 54.1l4.952-24.148h4.835l4.952 24.148h-4.18l-.976-5.568h-4.311l-1.005 5.569h-4.267zm5.709-8.38h3.364l-1.674-10.128-1.69 10.128zM127.887 54.1V29.952h5.928c1.675 0 3.087.199 4.238.583 1.151.383 2.024 1.05 2.622 1.988.597.938.902 2.202.902 3.821 0 .98-.087 1.847-.276 2.628-.19.782-.495 1.435-.932 1.989-.437.54-1.049.966-1.821 1.264L142 54.115h-4.53l-3-11.052h-2.082V54.1h-4.501zm4.515-13.835h1.413c.874 0 1.573-.128 2.097-.37.524-.24.888-.639 1.121-1.193.219-.54.335-1.25.335-2.102 0-1.207-.233-2.117-.684-2.727-.452-.611-1.325-.91-2.607-.91h-1.646v7.302h-.029z" fill="#fff"/></svg>
